SVG/gg-circle.svg

<?xml version="1.0" encoding="utf-8"?>
<!-- Generated by IcoMoon.io -->
<!DOCTYPE svg PUBLIC "-//W3C//DTD SVG 1.1//EN" "http://www.w3.org/Graphics/SVG/1.1/DTD/svg11.dtd">
<svg version="1.1" xmlns="http://www.w3.org/2000/svg" xmlns:xlink="http://www.w3.org/1999/xlink" width="14" height="14" viewBox="0 0 14 14">
<path fill="#444444" d="M5.602 10.578l2.117-2.117-2.18-2.18-0.688 0.688 1.5 1.492-0.75 0.75-2.18-2.18 2.18-2.18 0.312 0.312 0.68-0.68-0.992-1-3.547 3.547zM8.398 10.516l3.547-3.547-3.547-3.547-2.117 2.117 2.18 2.18 0.688-0.688-1.5-1.492 0.75-0.75 2.18 2.18-2.18 2.18-0.312-0.312-0.68 0.688zM14 7q0 1.422-0.555 2.719t-1.492 2.234-2.234 1.492-2.719 0.555-2.719-0.555-2.234-1.492-1.492-2.234-0.555-2.719 0.555-2.719 1.492-2.234 2.234-1.492 2.719-0.555 2.719 0.555 2.234 1.492 1.492 2.234 0.555 2.719z"></path>
</svg>

<svg xmlns="http://www.w3.org/2000/svg" viewBox="0 0 14 14"><path d="M5.602 10.578L7.72 8.46 5.54 6.28l-.69.69 1.5 1.49-.75.75-2.18-2.18L5.6 4.85l.313.313.68-.68-.992-1L2.055 7.03zm2.796-.062l3.547-3.547L8.398 3.42 6.28 5.54l2.18 2.18.69-.69-1.5-1.49.75-.75 2.18 2.18L8.4 9.15l-.313-.313-.68.688zM14 7q0 1.422-.555 2.72t-1.492 2.233-2.234 1.492T7 14t-2.72-.555-2.233-1.492T.555 9.72 0 7t.555-2.72 1.492-2.233T4.28.555 7 0t2.72.555 2.233 1.492 1.492 2.234T14 7z" /></svg>
